DisplayCAL/storage/M101NWT2 2014-05-29 2.2 S 1xCurve+MTX/M101NWT2 2014-05-29 2.2 S 1xCurve+MTX.cal
CAL    

ORIGINATOR "Argyll dispcal"
KEYWORD "TARGET_GAMMA"
TARGET_GAMMA "2.2"
CREATED "Thu May 29 19:39:59 2014"
KEYWORD "NATIVE_TARGET_WHITE"
NATIVE_TARGET_WHITE ""
KEYWORD "DEGREE_OF_BLACK_OUTPUT_OFFSET"
DEGREE_OF_BLACK_OUTPUT_OFFSET "1.0"
KEYWORD "VIDEO_LUT_CALIBRATION_POSSIBLE"
VIDEO_LUT_CALIBRATION_POSSIBLE "YES"
DESCRIPTOR "Argyll Device Calibration Curves"
KEYWORD "BLACK_POINT_CORRECTION"
BLACK_POINT_CORRECTION "0.0"
KEYWORD "TV_OUTPUT_ENCODING"
TV_OUTPUT_ENCODING "NO"
KEYWORD "DEVICE_TYPE"
DEVICE_TYPE "l"
KEYWORD "DEVICE_CLASS"
DEVICE_CLASS "DISPLAY"
KEYWORD "TARGET_WHITE_XYZ"
TARGET_WHITE_XYZ "129.735155 134.950435 209.208009"

BEGIN_ARGYLL_DISPCAL_ARGS
-v2 -d1 -c1 -yl -P0.5,0.9,1.5 -Ibw -qh -m -t -g2.2 -f1.0 -k0 -A4.0
END_ARGYLL_DISPCAL_ARGS

KEYWORD "QUALITY"
QUALITY "high"
KEYWORD "BLACK_NEUTRAL_BLEND_RATE"
BLACK_NEUTRAL_BLEND_RATE "4.0"
KEYWORD "COLOR_REP"
COLOR_REP "RGB"

KEYWORD "RGB_I"
NUMBER_OF_FIELDS 4
BEGIN_DATA_FORMAT
RGB_I RGB_R RGB_G RGB_B
END_DATA_FORMAT

NUMBER_OF_SETS 256
BEGIN_DATA
0.000000000 0.000000000 0.008872910 0.000000000
0.003921570 0.000000000 0.010055800 0.000000000
0.007843140 0.000000000 0.011267700 0.000000000
0.011764700 0.000000000 0.012509700 0.000000000
0.015686300 0.000000000 0.013782900 0.000000000
0.019607800 0.000000000 0.015088500 0.000000000
0.023529400 0.000000000 0.016427800 0.000000000
0.027451000 0.000283639 0.017802100 0.000000000
0.031372500 0.001051900 0.019212800 0.000000000
0.035294100 0.001846140 0.020661300 0.000668019
0.039215700 0.002667700 0.022149300 0.001500770
0.043137300 0.003518010 0.023678200 0.002354210
0.047058800 0.004398620 0.025249900 0.003229110
0.050980400 0.005311160 0.026866100 0.004126280
0.054902000 0.006257410 0.028528900 0.005046610
0.058823500 0.007239270 0.030240100 0.005990980
0.062745100 0.008258800 0.032002000 0.006960360
0.066666700 0.009318190 0.033816900 0.007955760
0.070588200 0.010419800 0.035687200 0.008978220
0.074509800 0.011566300 0.037615400 0.010028900
0.078431400 0.012760400 0.039604300 0.011108900
0.082352900 0.014005200 0.041656800 0.012219600
0.086274500 0.015303900 0.043776500 0.013362200
0.090196100 0.016660200 0.045966900 0.014538200
0.094117600 0.018077900 0.048231900 0.015749000
0.098039200 0.019561300 0.050574400 0.016996100
0.101961000 0.021115100 0.052996900 0.018281400
0.105882000 0.022744500 0.055502600 0.019606500
0.109804000 0.024455000 0.058093000 0.020973300
0.113725000 0.026252900 0.060770400 0.022383800
0.117647000 0.028145100 0.063533700 0.023840100
0.121569000 0.030139600 0.066384300 0.025344600
0.125490000 0.032242900 0.069325800 0.026899700
0.129412000 0.034457400 0.072357600 0.028507800
0.133333000 0.036786500 0.075474300 0.030171700
0.137255000 0.039230500 0.078675300 0.031892400
0.141176000 0.041797000 0.081961700 0.033672000
0.145098000 0.044477400 0.085322500 0.035511800
0.149020000 0.047275600 0.088751700 0.037413800
0.152941000 0.050190200 0.092245100 0.039380400
0.156863000 0.053201200 0.095798800 0.041412700
0.160784000 0.056311800 0.099403300 0.043511600
0.164706000 0.059525300 0.103061000 0.045677700
0.168627000 0.062824600 0.106768000 0.047910200
0.172549000 0.066186200 0.110527000 0.050208000
0.176471000 0.069620100 0.114340000 0.052570900
0.180392000 0.073133500 0.118207000 0.054997900
0.184314000 0.076729400 0.122132000 0.057486100
0.188235000 0.080390000 0.126107000 0.060033600
0.192157000 0.084100900 0.130134000 0.062638300
0.196078000 0.087863200 0.134215000 0.065298900
0.200000000 0.091709700 0.138355000 0.068018000
0.203922000 0.095633800 0.142527000 0.070792400
0.207843000 0.099650100 0.146725000 0.073623300
0.211765000 0.103751000 0.150942000 0.076506400
0.215686000 0.107942000 0.155203000 0.079442800
0.219608000 0.112215000 0.159494000 0.082424400
0.223529000 0.116522000 0.163804000 0.085444900
0.227451000 0.120832000 0.168148000 0.088508200
0.231373000 0.125188000 0.172523000 0.091604100
0.235294000 0.129606000 0.176944000 0.094732500
0.239216000 0.134035000 0.181424000 0.097901200
0.243137000 0.138448000 0.185929000 0.101106000
0.247059000 0.142868000 0.190451000 0.104345000
0.250980000 0.147312000 0.195010000 0.107621000
0.254902000 0.151727000 0.199602000 0.110934000
0.258824000 0.156190000 0.204212000 0.114270000
0.262745000 0.160671000 0.208847000 0.117635000
0.266667000 0.165185000 0.213526000 0.121030000
0.270588000 0.169759000 0.218226000 0.124463000
0.274510000 0.174370000 0.222940000 0.127923000
0.278431000 0.178999000 0.227646000 0.131406000
0.282353000 0.183682000 0.232342000 0.134912000
0.286275000 0.188417000 0.237030000 0.138442000
0.290196000 0.193119000 0.241693000 0.142013000
0.294118000 0.197777000 0.246324000 0.145606000
0.298039000 0.202422000 0.250932000 0.149200000
0.301961000 0.207033000 0.255522000 0.152808000
0.305882000 0.211639000 0.260115000 0.156432000
0.309804000 0.216284000 0.264724000 0.160068000
0.313725000 0.220970000 0.269320000 0.163731000
0.317647000 0.225691000 0.273870000 0.167433000
0.321569000 0.230393000 0.278364000 0.171157000
0.325490000 0.235034000 0.282798000 0.174892000
0.329412000 0.239635000 0.287170000 0.178634000
0.333333000 0.244202000 0.291477000 0.182410000
0.337255000 0.248767000 0.295758000 0.186214000
0.341176000 0.253339000 0.300039000 0.190040000
0.345098000 0.257903000 0.304315000 0.193886000
0.349020000 0.262440000 0.308578000 0.197768000
0.352941000 0.266879000 0.312824000 0.201689000
0.356863000 0.271195000 0.317061000 0.205613000
0.360784000 0.275419000 0.321300000 0.209533000
0.364706000 0.279579000 0.325526000 0.213451000
0.368627000 0.283710000 0.329739000 0.217358000
0.372549000 0.287840000 0.333939000 0.221282000
0.376471000 0.291978000 0.338134000 0.225231000
0.380392000 0.296128000 0.342367000 0.229195000
0.384314000 0.300281000 0.346649000 0.233166000
0.388235000 0.304410000 0.350976000 0.237153000
0.392157000 0.308553000 0.355341000 0.241154000
0.396078000 0.312713000 0.359734000 0.245172000
0.400000000 0.316872000 0.364156000 0.249212000
0.403922000 0.321035000 0.368585000 0.253246000
0.407843000 0.325191000 0.373021000 0.257271000
0.411765000 0.329359000 0.377480000 0.261271000
0.415686000 0.333550000 0.381953000 0.265236000
0.419608000 0.337726000 0.386422000 0.269169000
0.423529000 0.341882000 0.390876000 0.273062000
0.427451000 0.346024000 0.395302000 0.276896000
0.431373000 0.350160000 0.399689000 0.280663000
0.435294000 0.354286000 0.404045000 0.284404000
0.439216000 0.358410000 0.408409000 0.288156000
0.443137000 0.362525000 0.412811000 0.291916000
0.447059000 0.366670000 0.417254000 0.295673000
0.450980000 0.370809000 0.421725000 0.299430000
0.454902000 0.374934000 0.426208000 0.303178000
0.458824000 0.379075000 0.430693000 0.306925000
0.462745000 0.383187000 0.435185000 0.310678000
0.466667000 0.387236000 0.439706000 0.314428000
0.470588000 0.391212000 0.444243000 0.318177000
0.474510000 0.395090000 0.448777000 0.321921000
0.478431000 0.398915000 0.453302000 0.325659000
0.482353000 0.402789000 0.457819000 0.329405000
0.486275000 0.406729000 0.462315000 0.333185000
0.490196000 0.410720000 0.466782000 0.336985000
0.494118000 0.414747000 0.471235000 0.340796000
0.498039000 0.418801000 0.475680000 0.344595000
0.501961000 0.422888000 0.480118000 0.348380000
0.505882000 0.427019000 0.484546000 0.352149000
0.509804000 0.431214000 0.488966000 0.355908000
0.513725000 0.435460000 0.493387000 0.359646000
0.517647000 0.439723000 0.497810000 0.363386000
0.521569000 0.443969000 0.502241000 0.367141000
0.525490000 0.448204000 0.506737000 0.370902000
0.529412000 0.452392000 0.511283000 0.374671000
0.533333000 0.456544000 0.515861000 0.378438000
0.537255000 0.460690000 0.520472000 0.382207000
0.541176000 0.464916000 0.525115000 0.385966000
0.545098000 0.469223000 0.529779000 0.389702000
0.549020000 0.473595000 0.534464000 0.393409000
0.552941000 0.477966000 0.539171000 0.397128000
0.556863000 0.482318000 0.543889000 0.400906000
0.560784000 0.486691000 0.548595000 0.404756000
0.564706000 0.491083000 0.553293000 0.408674000
0.568627000 0.495527000 0.557997000 0.412644000
0.572549000 0.500057000 0.562697000 0.416652000
0.576471000 0.504680000 0.567384000 0.420678000
0.580392000 0.509398000 0.572042000 0.424724000
0.584314000 0.514214000 0.576677000 0.428793000
0.588235000 0.519111000 0.581346000 0.432863000
0.592157000 0.524047000 0.586057000 0.436933000
0.596078000 0.529093000 0.590793000 0.440986000
0.600000000 0.534317000 0.595530000 0.445045000
0.603922000 0.539672000 0.600266000 0.449126000
0.607843000 0.545128000 0.604992000 0.453214000
0.611765000 0.550789000 0.609714000 0.457288000
0.615686000 0.556677000 0.614410000 0.461349000
0.619608000 0.562754000 0.619079000 0.465412000
0.623529000 0.568911000 0.623741000 0.469468000
0.627451000 0.575173000 0.628410000 0.473526000
0.631373000 0.581554000 0.633071000 0.477583000
0.635294000 0.587872000 0.637719000 0.481639000
0.639216000 0.593983000 0.642367000 0.485699000
0.643137000 0.599807000 0.647014000 0.489764000
0.647059000 0.605330000 0.651639000 0.493849000
0.650980000 0.610527000 0.656219000 0.497972000
0.654902000 0.615451000 0.660740000 0.502160000
0.658824000 0.620244000 0.665201000 0.506389000
0.662745000 0.625019000 0.669612000 0.510653000
0.666667000 0.629832000 0.674023000 0.514954000
0.670588000 0.634766000 0.678474000 0.519288000
0.674510000 0.639917000 0.682965000 0.523652000
0.678431000 0.645358000 0.687489000 0.528049000
0.682353000 0.651117000 0.692023000 0.532472000
0.686275000 0.657108000 0.696544000 0.536920000
0.690196000 0.663245000 0.701030000 0.541374000
0.694118000 0.669661000 0.705476000 0.545845000
0.698039000 0.676319000 0.709880000 0.550368000
0.701961000 0.683184000 0.714254000 0.554931000
0.705882000 0.690001000 0.718603000 0.559517000
0.709804000 0.696555000 0.722940000 0.564116000
0.713725000 0.702831000 0.727263000 0.568710000
0.717647000 0.708852000 0.731578000 0.573366000
0.721569000 0.714675000 0.735906000 0.578135000
0.725490000 0.720357000 0.740247000 0.582993000
0.729412000 0.725895000 0.744607000 0.587897000
0.733333000 0.731328000 0.748985000 0.592846000
0.737255000 0.736657000 0.753381000 0.597841000
0.741176000 0.741911000 0.757779000 0.602859000
0.745098000 0.747072000 0.762165000 0.607860000
0.749020000 0.752156000 0.766538000 0.612835000
0.752941000 0.757186000 0.770891000 0.617798000
0.756863000 0.762120000 0.775236000 0.622768000
0.760784000 0.766898000 0.779579000 0.627747000
0.764706000 0.771573000 0.783910000 0.632725000
0.768627000 0.776216000 0.788223000 0.637711000
0.772549000 0.780774000 0.792497000 0.642677000
0.776471000 0.785224000 0.796715000 0.647603000
0.780392000 0.789597000 0.800876000 0.652450000
0.784314000 0.793854000 0.805016000 0.657186000
0.788235000 0.797969000 0.809166000 0.661804000
0.792157000 0.802014000 0.813326000 0.666332000
0.796078000 0.806107000 0.817488000 0.670933000
0.800000000 0.810241000 0.821635000 0.675659000
0.803922000 0.814398000 0.825758000 0.680513000
0.807843000 0.818521000 0.829859000 0.685468000
0.811765000 0.822618000 0.833945000 0.690492000
0.815686000 0.826687000 0.838007000 0.695563000
0.819608000 0.830722000 0.842044000 0.700675000
0.823529000 0.834733000 0.846057000 0.705826000
0.827451000 0.838724000 0.850049000 0.711033000
0.831373000 0.842691000 0.854001000 0.716296000
0.835294000 0.846667000 0.857908000 0.721586000
0.839216000 0.850635000 0.861798000 0.726896000
0.843137000 0.854569000 0.865697000 0.732270000
0.847059000 0.858490000 0.869598000 0.737710000
0.850980000 0.862443000 0.873495000 0.743220000
0.854902000 0.866395000 0.877384000 0.748802000
0.858824000 0.870301000 0.881250000 0.754445000
0.862745000 0.874172000 0.885095000 0.760097000
0.866667000 0.878035000 0.888913000 0.765736000
0.870588000 0.881909000 0.892707000 0.771356000
0.874510000 0.885802000 0.896479000 0.776987000
0.878431000 0.889693000 0.900222000 0.782601000
0.882353000 0.893589000 0.903931000 0.788183000
0.886275000 0.897463000 0.907610000 0.793701000
0.890196000 0.901289000 0.911259000 0.799131000
0.894118000 0.905062000 0.914896000 0.804578000
0.898039000 0.908786000 0.918521000 0.810169000
0.901961000 0.912491000 0.922120000 0.815874000
0.905882000 0.916191000 0.925689000 0.821658000
0.909804000 0.919852000 0.929243000 0.827484000
0.913725000 0.923446000 0.932773000 0.833369000
0.917647000 0.927023000 0.936269000 0.839335000
0.921569000 0.930617000 0.939726000 0.845361000
0.925490000 0.934224000 0.943135000 0.851441000
0.929412000 0.937836000 0.946499000 0.857524000
0.933333000 0.941420000 0.949822000 0.863740000
0.937255000 0.944960000 0.953108000 0.870134000
0.941176000 0.948471000 0.956352000 0.876690000
0.945098000 0.951990000 0.959550000 0.883404000
0.949020000 0.955505000 0.962703000 0.890245000
0.952941000 0.958991000 0.965811000 0.897288000
0.956863000 0.962469000 0.968874000 0.904531000
0.960784000 0.965934000 0.971896000 0.911973000
0.964706000 0.969380000 0.974877000 0.919709000
0.968627000 0.972817000 0.977818000 0.927664000
0.972549000 0.976245000 0.980720000 0.935869000
0.976471000 0.979664000 0.983583000 0.944298000
0.980392000 0.983075000 0.986409000 0.952963000
0.984314000 0.986477000 0.989198000 0.961861000
0.988235000 0.989871000 0.991951000 0.971003000
0.992157000 0.993256000 0.994669000 0.980398000
0.996078000 0.996632000 0.997351000 0.990060000
1.000000000 1.000000000 1.000000000 1.000000000
END_DATA
CAL    

ORIGINATOR "Argyll dispcal"
CREATED "Thu May 29 19:39:59 201"
DESCRIPTOR "Argyll Calibration options and model"

KEYWORD "R_P"
KEYWORD "G_P"
KEYWORD "B_P"
NUMBER_OF_FIELDS 3
BEGIN_DATA_FORMAT
R_P G_P B_P
END_DATA_FORMAT

NUMBER_OF_SETS 32
BEGIN_DATA
0.038535900 0.008379800 0.030371000
0.961464000 0.991620000 0.969629000
1.595010000 1.600570000 0.487386000
0.196339000 0.375795000 0.543454000
0.041408300 0.075504600 0.035948600
0.063900200 0.084889300 0.101155000
0.053361800 0.088317500 0.047676400
0.037611400 0.035552800 0.061256300
0.040203500 0.041227100 0.025061100
0.037800900 0.022768500 0.013641300
0.033112100 0.017717000 0.011247400
0.029347100 0.002517270 0.012709000
0.009509690 0.018775600 0.010072200
-0.000719057 0.032458100 0.006421180
-0.002921270 0.006232560 0.006491170
0.004861510 0.008378960 0.008628440
0.021502400 0.010287100 0.004747620
0.011345800 -0.016599800 0.006691410
-0.000511857 0.000263911 0.009254610
-0.002056480 0.017750400 0.005232450
-0.001804880 0.000506121 0.012906300
0.002130740 -0.005518310 -0.000749609
0.004097210 -0.001774110 0.009287420
0.005889070 -0.000545468 0.009594560
0.000818849 0.003327890 0.008920930
0.000406117 -0.001142460 0.008227510
0.001909040 -0.003397390 0.000856765
0.003647000 -1.775e-0500 0.007937510
0.004823940 -0.002955410 0.008034220
-0.002711140 0.003035000 0.010130800
-0.002706250 0.008304770 0.007334730
-1.6652e-050 -0.006380310 0.006226260
END_DATA