DisplayCAL/storage/M101NWT2 2014-05-29 2.2 S 1xCurve+MTX/M101NWT2 2014-05-29 2.2 S 1xCurve+MTX.ti3
CTI3   

KEYWORD "TARGET_INSTRUMENT"
TARGET_INSTRUMENT "ColorVision Spyder2"
KEYWORD "LUMINANCE_XYZ_CDM2"
LUMINANCE_XYZ_CDM2 "127.256485 132.860552 205.846941"

BEGIN_ARGYLL_COLPROF_ARGS
-v -qh -aS -C "No copyright. Created with dispcalGUI 2.1.0.0 and Argyll CMS 1.6.3" -M "M101NWT2 R1"
END_ARGYLL_COLPROF_ARGS

KEYWORD "DARK_REGION_EMPHASIS"
DARK_REGION_EMPHASIS "1.6"
KEYWORD "SMOOTH_B2A_SIZE"
SMOOTH_B2A_SIZE "33"
KEYWORD "DISPLAY_TYPE_BASE_ID"
DISPLAY_TYPE_BASE_ID "1"
KEYWORD "COLOR_REP"
COLOR_REP "RGB_XYZ"
KEYWORD "NORMALIZED_TO_Y_100"
NORMALIZED_TO_Y_100 "YES"
ORIGINATOR "Argyll dispread"
KEYWORD "USE_BLACK_POINT_COMPENSATION"
USE_BLACK_POINT_COMPENSATION "YES"
CREATED "Thu May 29 19:40:00 2014"
KEYWORD "DISPLAY_TYPE_REFRESH"
DISPLAY_TYPE_REFRESH "NO"
KEYWORD "COMP_GREY_STEPS"
COMP_GREY_STEPS "121"
KEYWORD "VIDEO_LUT_CALIBRATION_POSSIBLE"
VIDEO_LUT_CALIBRATION_POSSIBLE "YES"
KEYWORD "SINGLE_DIM_STEPS"
SINGLE_DIM_STEPS "41"
DESCRIPTOR "Argyll Calibration Target chart information 3"
KEYWORD "DEVICE_CLASS"
DEVICE_CLASS "DISPLAY"
KEYWORD "SMOOTH_B2A"
SMOOTH_B2A "YES"
KEYWORD "INSTRUMENT_TYPE_SPECTRAL"
INSTRUMENT_TYPE_SPECTRAL "NO"

NUMBER_OF_FIELDS 7
BEGIN_DATA_FORMAT
SAMPLE_ID RGB_R RGB_G RGB_B XYZ_X XYZ_Y XYZ_Z
END_DATA_FORMAT

NUMBER_OF_SETS 2527
BEGIN_DATA
1 100.0000 100.0000 100.0000 95.78200 100.0000 154.9350
2 59.58860 62.77990 0.000000 24.91600 29.92350 14.57490
3 86.39380 81.42560 0.000000 48.91820 56.22150 23.11810
4 100.0000 84.73460 43.88510 63.49960 67.10720 42.01720
5 0.000000 74.04640 30.56130 23.20730 35.84890 22.46090
6 0.000000 77.84510 51.33410 28.43510 42.15070 41.10140
7 0.000000 74.24170 79.04570 35.24520 43.80980 84.31390
8 44.71400 73.80550 83.15280 41.29160 46.41100 95.01700
9 94.66020 94.66020 94.66020 85.66730 89.19860 138.4200
10 96.40520 96.40520 96.40520 89.09470 92.62470 144.2740
11 10.68380 10.68380 10.68380 2.769520 2.418200 4.547830
12 0.000000 0.000000 3.554500 2.310350 1.774300 3.924600
13 9.729270 9.729270 9.729270 2.642810 2.279910 4.315500
14 3.554500 0.000000 0.000000 2.310940 1.773740 3.926410
15 2.336450 0.000000 0.000000 2.312250 1.774590 3.927100
16 4.807690 0.000000 0.000000 2.312440 1.774050 3.924490
17 6.097560 0.000000 0.000000 2.312650 1.774210 3.925490
18 10.20410 0.000000 0.000000 2.384360 1.812510 3.948690
19 11.65800 0.000000 0.000000 2.420160 1.830920 3.956490
20 16.30430 0.000000 0.000000 2.646540 1.953420 4.021150
21 17.95580 0.000000 0.000000 2.734220 2.002410 4.045770
22 19.66290 0.000000 0.000000 2.892450 2.087000 4.092390
23 21.42860 0.000000 0.000000 3.029100 2.162270 4.132610
24 23.25580 0.000000 0.000000 3.252780 2.283600 4.195580
25 25.14790 0.000000 0.000000 3.452960 2.394500 4.253290
26 27.10840 0.000000 0.000000 3.710950 2.537960 4.321170
27 29.14110 0.000000 0.000000 3.988390 2.691950 4.398670
28 29.67840 12.23110 0.000000 4.415430 3.388740 4.677930
29 31.25000 0.000000 0.000000 4.333970 2.883560 4.492810
30 35.71430 0.000000 0.000000 5.071830 3.293740 4.693270
31 38.07950 0.000000 0.000000 5.527610 3.546160 4.813520
32 40.54050 0.000000 0.000000 6.095160 3.860550 4.963420
33 43.10340 0.000000 0.000000 6.705770 4.200020 5.118730
34 45.77460 0.000000 0.000000 7.453430 4.617790 5.305970
35 48.56120 0.000000 0.000000 7.726460 4.857850 5.475410
36 51.47060 0.000000 0.000000 8.406580 5.251960 5.666320
37 54.51130 0.000000 0.000000 9.321870 5.787660 5.912700
38 57.69230 0.000000 0.000000 10.35980 6.396680 6.190010
39 61.02360 0.000000 0.000000 11.68750 7.179660 6.534190
40 64.51610 0.000000 0.000000 13.26010 8.110270 6.917680
41 68.18180 0.000000 0.000000 14.88630 9.069770 7.309420
42 72.03390 0.000000 0.000000 17.31230 10.51230 7.857900
43 76.08700 0.000000 0.000000 19.74730 11.95770 8.369200
44 80.35710 0.000000 0.000000 22.12260 13.36630 8.837860
45 84.86240 0.000000 0.000000 24.85710 14.99650 9.308490
46 89.62260 0.000000 0.000000 27.98230 16.84840 9.803900
47 94.66020 0.000000 0.000000 31.53250 18.97750 10.22260
48 100.0000 0.000000 52.30520 40.48820 24.03140 36.62400
49 100.0000 29.70840 91.79290 58.12430 37.97620 114.4320
50 14.70590 0.000000 0.000000 2.560220 1.907310 3.994510
51 8.793970 0.000000 0.000000 2.309610 1.775570 3.922430
52 0.000000 1.152070 0.000000 2.310560 1.775360 3.925560
53 0.000000 2.336450 0.000000 2.310070 1.775770 3.923660
54 0.000000 3.554500 0.000000 2.377640 1.894220 3.975480
55 0.000000 4.807690 0.000000 2.410200 1.954800 3.998700
56 0.000000 6.097560 0.000000 2.442500 2.014540 4.022950
57 0.000000 7.425740 0.000000 2.492640 2.104550 4.059510
58 0.000000 13.15790 0.000000 2.737810 2.550510 4.232480
59 0.000000 14.70590 0.000000 2.831470 2.717380 4.302870
60 0.000000 16.30430 0.000000 2.961460 2.954050 4.395940
61 0.000000 17.95580 0.000000 3.105480 3.207910 4.497420
62 0.000000 19.66290 0.000000 3.293980 3.549160 4.627530
63 0.000000 21.42860 0.000000 3.454890 3.839700 4.738820
64 0.000000 23.25580 0.000000 3.718160 4.309940 4.922060
65 0.000000 25.14790 0.000000 3.947610 4.725180 5.078140
66 0.000000 27.10840 0.000000 4.241560 5.250790 5.281570
67 0.000000 29.14110 0.000000 4.553000 5.810220 5.494780
68 0.000000 31.25000 0.000000 4.952170 6.533260 5.758880
69 0.000000 33.43950 0.000000 5.408990 7.345400 6.069460
70 0.000000 35.71430 0.000000 6.211070 8.368260 6.486490
71 0.000000 38.07950 0.000000 6.481240 9.262430 6.781550
72 0.000000 40.54050 0.000000 7.113670 10.39420 7.199580
73 0.000000 43.10340 0.000000 8.203400 11.82180 7.765980
74 0.000000 45.77460 0.000000 8.756950 13.31750 8.259680
75 0.000000 48.56120 0.000000 10.01670 14.94930 8.899900
76 0.000000 51.47060 0.000000 11.04340 16.72070 9.528540
77 0.000000 54.51130 0.000000 11.80250 18.73630 10.17140
78 0.000000 57.69230 0.000000 13.55260 21.03320 11.02330
79 0.000000 61.02360 0.000000 15.14790 23.76340 11.94910
80 0.000000 64.51610 0.000000 16.73640 26.46010 12.85720
81 0.000000 68.18180 0.000000 17.94580 29.60440 13.76260
82 0.000000 72.03390 0.000000 19.92220 33.06160 14.85620
83 0.000000 76.08700 0.000000 22.08280 36.86080 16.00510
84 0.000000 80.35710 0.000000 24.72140 41.47990 17.32090
85 0.000000 84.86240 0.000000 27.70450 46.65130 18.76400
86 0.000000 89.62260 0.000000 31.01250 52.36440 20.17250
87 0.000000 94.66020 0.000000 34.39800 58.13980 21.43000
88 0.000000 100.0000 0.000000 37.43960 63.25460 22.35040
89 19.53840 100.0000 75.72590 50.17560 70.42330 83.80060
90 47.75310 100.0000 80.41030 57.47960 74.60280 95.45110
91 69.38340 55.35300 39.67810 28.06180 28.48750 26.73610
92 49.34890 46.75530 30.69240 16.49700 17.81790 16.98060
93 75.33800 62.56610 33.31320 33.82510 35.49890 25.00250
94 13.15790 0.000000 0.000000 2.480610 1.863020 3.979970
95 7.425740 0.000000 0.000000 2.308760 1.774130 3.922070
96 0.000000 0.000000 6.097560 2.307220 1.773940 3.923030
97 0.000000 0.000000 7.425740 2.307320 1.773910 3.918250
98 0.000000 0.000000 8.793970 2.306680 1.774940 3.921170
99 9.259260 9.259260 9.259260 2.574570 2.211500 4.100710
100 0.000000 0.000000 11.65800 2.384050 1.812610 4.308290
101 0.000000 0.000000 16.30430 2.570390 1.911150 5.266330
102 0.000000 0.000000 19.66290 2.725230 1.992260 6.051700
103 0.000000 0.000000 21.42860 2.823140 2.043730 6.552030
104 0.000000 0.000000 23.25580 2.960060 2.116260 7.260040
105 0.000000 0.000000 25.14790 3.110480 2.195070 8.027210
106 0.000000 0.000000 27.10840 3.270510 2.276800 8.836350
107 0.000000 0.000000 29.14110 3.484540 2.389100 9.928260
108 0.000000 8.866650 33.58200 4.176300 3.055980 12.44370
109 0.000000 0.000000 33.43950 3.946290 2.635140 12.29310
110 0.000000 0.000000 35.71430 4.402190 2.811370 13.86930
111 0.000000 0.000000 38.07950 4.719720 2.980600 15.48860
112 0.000000 0.000000 40.54050 5.056210 3.162130 17.20010
113 0.000000 0.000000 43.10340 5.534370 3.420330 19.63220
114 0.000000 0.000000 45.77460 6.095610 3.723820 22.45970
115 0.000000 0.000000 48.56120 6.687130 4.045820 25.45470
116 0.000000 0.000000 51.47060 7.309820 4.391480 28.60200
117 0.000000 0.000000 54.51130 7.970840 4.756230 31.93180
118 0.000000 0.000000 57.69230 8.783660 5.211810 36.02880
119 0.000000 0.000000 61.02360 9.853180 5.813760 41.35410
120 0.000000 0.000000 64.51610 10.88490 6.411560 46.57470
121 0.000000 0.000000 68.18180 12.06530 7.100790 52.47810
122 0.000000 0.000000 72.03390 13.45730 7.925970 59.41400
123 0.000000 0.000000 76.08700 14.95640 8.835920 66.87840
124 0.000000 0.000000 80.35710 16.81890 9.993380 76.07370
125 0.000000 0.000000 84.86240 19.05800 11.44680 87.13430
126 0.000000 0.000000 89.62260 21.60950 13.18750 99.53730
127 65.17880 30.38920 100.0000 41.39200 30.03650 134.7030
128 81.62780 72.29990 100.0000 66.23970 63.25640 146.1730
129 83.58540 81.29800 100.0000 72.71170 73.27600 149.0930
130 0.000000 0.000000 10.20410 2.343280 1.796940 4.111440
131 0.000000 0.000000 1.152070 2.307190 1.775900 3.922660
132 0.000000 0.000000 2.336450 2.307830 1.775350 3.920230
133 0.000000 8.793970 0.000000 2.537320 2.194540 4.084570
134 0.000000 11.65800 0.000000 2.646130 2.391330 4.165190
135 0.764526 0.764526 0.764526 2.307370 1.776570 3.916690
136 1.152070 1.152070 1.152070 2.308520 1.776190 3.918830
137 1.543210 1.543210 1.543210 2.309790 1.775380 3.924790
138 1.937980 1.937980 1.937980 2.309450 1.775900 3.923570
139 2.336450 2.336450 2.336450 2.309100 1.776090 3.924760
140 2.738650 2.738650 2.738650 2.340850 1.836040 3.946290
141 3.144650 3.144650 3.144650 2.340570 1.835120 3.946970
142 3.554500 3.554500 3.554500 2.373360 1.895710 3.970420
143 3.968250 3.968250 3.968250 2.373580 1.895670 3.971320
144 4.385960 4.385960 4.385960 2.404510 1.954100 3.991540
145 4.807690 4.807690 4.807690 2.404560 1.955110 3.994370
146 5.233490 5.233490 5.233490 2.408470 1.954810 4.000500
147 5.663430 5.663430 5.663430 2.440260 2.014550 4.021330
148 6.097560 6.097560 6.097560 2.439960 2.014160 4.017090
149 7.787810 6.114450 0.000000 2.441920 2.015300 4.020500
150 6.535950 6.535950 6.535950 2.467960 2.059420 4.042590
151 6.978650 6.978650 6.978650 2.466280 2.058560 4.035470
152 7.425740 7.425740 7.425740 2.490740 2.105790 4.057650
153 7.877280 7.877280 7.877280 2.515060 2.149680 4.071480
154 8.333330 8.333330 8.333330 2.515430 2.150250 4.072520
155 0.000000 12.75010 9.716350 2.745870 2.517320 4.406250
156 8.793970 8.793970 8.793970 2.540910 2.195210 4.093600
157 12.65270 12.65270 12.65270 2.988990 2.645130 4.838680
158 13.15790 13.15790 13.15790 3.054960 2.717880 5.048040
159 13.66840 13.66840 13.66840 3.112770 2.785080 5.073660
160 14.18440 14.18440 14.18440 3.198460 2.871700 5.254220
161 14.70590 14.70590 14.70590 3.283990 2.956420 5.425560
162 15.23300 15.23300 15.23300 3.341580 3.028330 5.452510
163 15.76580 15.76580 15.76580 3.464420 3.175460 5.649830
164 17.95580 17.95580 17.95580 3.849750 3.603760 6.268590
165 20.67880 14.27040 18.19810 3.803200 3.193620 6.276800
166 17.39930 17.39930 17.39930 3.751710 3.505020 6.071640
167 16.84880 16.84880 16.84880 3.715170 3.438500 6.049610
168 16.30430 16.30430 16.30430 3.558770 3.266580 5.829270
169 18.51850 18.51850 18.51850 4.013520 3.781480 6.488700
170 19.08750 19.08750 19.08750 4.116150 3.885770 6.681310
171 19.66290 19.66290 19.66290 4.291750 4.079630 6.924240
172 20.24480 20.24480 20.24480 4.396770 4.183640 7.128090
173 20.83330 20.83330 20.83330 4.583000 4.386360 7.368170
174 21.42860 21.42860 21.42860 4.691130 4.498480 7.577510
175 22.03070 22.03070 22.03070 4.916710 4.728420 8.016340
176 22.63970 22.63970 22.63970 4.999210 4.826920 8.053930
177 23.25580 23.25580 23.25580 5.319930 5.165480 8.544840
178 23.87910 23.87910 23.87910 5.566320 5.414660 9.012620
179 24.50980 24.50980 24.50980 5.650590 5.516920 9.050700
180 25.14790 25.14790 25.14790 5.903840 5.777660 9.528120
181 25.79370 25.79370 25.79370 6.217610 6.127810 10.06280
182 26.44710 26.44710 26.44710 6.394860 6.285860 10.32170
183 27.10840 27.10840 27.10840 6.623210 6.535910 10.62290
184 27.77780 27.77780 27.77780 6.956330 6.903570 11.18960
185 28.45530 28.45530 28.45530 7.140890 7.068870 11.46460
186 29.14110 29.14110 29.14110 7.433400 7.364640 12.00520
187 29.83540 29.83540 29.83540 7.781350 7.760010 12.58650
188 30.53830 30.53830 30.53830 8.140240 8.093780 13.18760
189 31.25000 31.25000 31.25000 8.418240 8.407260 13.54010
190 31.97060 31.97060 31.97060 8.666990 8.729290 13.89980
191 32.70040 32.70040 32.70040 9.072320 9.137740 14.52890
192 33.43950 33.43950 33.43950 9.436180 9.528800 15.15360
193 34.18800 34.18800 34.18800 9.805090 9.921520 15.81060
194 34.94620 34.94620 34.94620 10.24000 10.36040 16.48100
195 36.49240 36.49240 36.49240 11.15710 11.37580 17.88640
196 37.28070 37.28070 37.28070 11.59510 11.83300 18.58270
197 38.07950 38.07950 38.07950 12.03640 12.28970 19.29470
198 38.88890 38.88890 38.88890 12.49340 12.75650 20.00650
199 39.70920 39.70920 39.70920 13.11940 13.43520 20.83510
200 40.54050 40.54050 40.54050 13.59170 13.92740 21.59040
201 41.38320 41.38320 41.38320 14.07370 14.42280 22.34180
202 42.23740 42.23740 42.23740 14.94730 15.39570 23.74920
203 43.10340 43.10340 43.10340 15.48970 15.94550 24.70760
204 43.98150 43.98150 43.98150 16.03740 16.50100 25.70550
205 44.87180 44.87180 44.87180 16.60410 17.08050 26.68690
206 45.77460 45.77460 45.77460 17.66820 18.20350 28.28550
207 46.69030 46.69030 46.69030 18.26550 18.79760 29.34570
208 47.61900 47.61900 47.61900 18.86230 19.41390 30.36810
209 48.56120 48.56120 48.56120 19.90360 20.54710 32.08220
210 49.51690 49.51690 49.51690 20.52590 21.18420 33.16570
211 50.48660 50.48660 50.48660 21.62550 22.39690 34.91680
212 51.47060 51.47060 51.47060 22.30250 23.11020 36.05850
213 52.46910 52.46910 52.46910 23.23740 24.12810 37.31120
214 53.48260 53.48260 53.48260 24.07200 25.06570 38.59710
215 54.51130 54.51130 54.51130 25.18590 26.12570 40.38980
216 55.55560 55.55560 55.55560 26.34990 27.38120 42.24790
217 56.61580 56.61580 56.61580 27.10970 28.11240 43.56300
218 57.69230 57.69230 57.69230 28.49090 29.53380 45.53740
219 58.78550 58.78550 58.78550 29.62730 30.65090 47.46970
220 59.89580 59.89580 59.89580 31.01100 32.11810 49.55840
221 61.02360 61.02360 61.02360 32.67120 33.75080 52.18900
222 62.16930 62.16930 62.16930 32.73960 34.59140 54.24120
223 63.33330 63.33330 63.33330 35.66710 36.71430 56.48340
224 64.51610 64.51610 64.51610 37.11410 38.09020 58.74610
225 65.71820 65.71820 65.71820 37.20510 39.25180 61.16250
226 66.93990 66.93990 66.93990 38.60880 40.66860 63.38790
227 68.18180 68.18180 68.18180 42.04900 43.06900 66.14080
228 69.44440 69.44440 69.44440 41.86360 43.99970 68.25610
229 70.72830 70.72830 70.72830 44.40320 46.56710 71.87110
230 72.03390 72.03390 72.03390 46.07770 48.19910 74.72650
231 73.36180 73.36180 73.36180 47.84590 49.91640 77.04460
232 74.71260 74.71260 74.71260 50.33070 52.55740 80.89670
233 76.08700 76.08700 76.08700 52.17510 54.37930 83.88980
234 77.48540 77.48540 77.48540 54.59690 56.80510 87.71330
235 78.90860 78.90860 78.90860 57.15820 59.62510 91.72440
236 80.35710 80.35710 80.35710 59.02700 61.55690 94.92670
237 81.83180 81.83180 81.83180 61.54280 64.17200 98.97410
238 83.33330 83.33330 83.33330 64.09300 66.87230 102.9700
239 84.86240 84.86240 84.86240 66.91620 69.77220 107.8130
240 86.41980 86.41980 86.41980 69.82350 72.80640 112.7340
241 88.00620 88.00620 88.00620 72.69540 75.84300 116.9830
242 89.62260 89.62260 89.62260 75.80170 79.03160 122.0270
243 91.26980 91.26980 91.26980 78.67610 81.88420 127.0240
244 92.94870 92.94870 92.94870 81.98490 85.32970 132.0920
245 100.0000 0.000000 0.000000 35.38520 21.27060 10.52400
246 100.0000 30.33130 40.36640 40.49630 27.08430 25.87770
247 100.0000 36.86100 60.73120 46.72000 32.33360 51.15860
248 57.17470 32.91670 35.83130 16.12840 13.12330 18.29800
249 100.0000 51.59280 36.87660 45.87820 37.35640 27.06870
250 100.0000 62.08570 53.99390 53.37610 46.53490 46.81120
251 100.0000 73.92820 83.52110 69.70170 63.38540 102.3050
252 18.45280 0.000000 28.09030 3.846630 2.581730 9.443440
253 33.63400 0.000000 76.91750 17.68440 10.45060 70.23260
254 55.80180 0.000000 100.0000 35.80970 23.47280 132.0240
255 100.0000 72.34770 100.0000 78.76030 70.52260 147.6700
256 100.0000 88.18030 100.0000 88.45240 87.48800 152.3750
257 30.86370 44.32790 29.60730 11.46290 14.12140 14.73810
258 46.16550 67.28920 37.05300 24.93500 32.83400 25.69300
259 54.20380 75.80310 70.30300 40.19890 47.07180 70.15570
260 40.13050 76.90040 64.72740 34.86520 44.58000 60.01670
261 51.86870 76.17530 100.0000 55.19150 59.14530 144.1580
262 28.67650 51.39340 55.89270 18.29700 20.94480 39.97490
263 46.51320 49.13390 82.19710 30.48410 27.03620 86.95320
264 46.62140 56.59190 100.0000 43.88200 40.94910 138.2780
265 49.76290 63.66370 100.0000 47.91150 47.04060 140.3220
266 0.000000 14.76470 27.26360 3.792870 3.224790 9.209410
267 0.000000 24.84210 28.25430 5.185180 5.251050 10.63290
268 0.000000 33.65790 39.21840 8.185170 8.858540 18.49350
269 0.000000 47.68460 66.23070 18.80590 19.67750 53.51940
270 0.000000 100.0000 66.69910 46.29510 68.12450 67.07550
271 0.000000 100.0000 84.69860 53.44570 72.53470 102.6520
272 0.000000 66.44920 45.42990 20.85610 30.37520 31.32110
273 53.91640 100.0000 48.51270 49.46240 69.82070 45.68540
274 81.94820 100.0000 56.95950 64.39210 78.84280 58.41770
275 17.75440 21.17080 0.000000 3.878770 4.063340 4.861550
276 22.21850 100.0000 0.000000 38.23390 63.68990 22.54590
277 34.58140 79.94950 0.000000 26.97030 42.25040 17.85340
278 54.37830 100.0000 0.000000 45.44960 67.68760 24.34390
279 58.96200 100.0000 100.0000 72.54460 85.86390 150.7360
280 21.37540 34.61940 57.12550 13.08400 11.64590 38.06150
281 72.21670 38.13530 58.33420 28.14330 21.64650 44.26120
282 100.0000 44.25570 57.49300 47.69890 35.29520 47.50060
283 100.0000 86.92540 56.90980 68.07390 71.59080 57.61840
284 58.99820 30.34930 19.20560 13.87520 11.40670 10.19000
285 77.10690 72.35450 28.33830 39.28000 44.46350 25.13080
286 87.05140 100.0000 30.00470 62.72720 78.09320 34.39380
287 100.0000 100.0000 33.81660 71.98830 83.59270 37.58070
288 100.0000 37.56260 14.23110 39.56320 28.56240 14.17980
289 100.0000 58.67640 20.92210 46.76460 41.06310 20.10800
290 8.572530 93.44410 32.87610 35.13600 57.52850 29.15060
291 0.000000 100.0000 31.67940 38.86960 64.00540 29.56390
292 0.000000 100.0000 43.46700 40.55220 64.90030 38.06600
293 0.000000 100.0000 55.26860 43.02820 66.26070 50.61830
294 0.000000 100.0000 100.0000 63.17020 80.65880 148.4890
295 33.43950 0.000000 0.000000 4.644500 3.057380 4.583920
296 32.67780 23.86240 0.000000 6.053040 5.693160 5.598400
297 49.55090 27.76000 0.000000 10.54830 8.904060 6.989740
298 60.89330 44.57850 0.000000 18.59690 18.13510 10.51040
299 100.0000 47.80130 78.41920 56.18620 41.80950 84.96420
300 100.0000 50.57500 100.0000 69.01200 53.20150 141.9750
301 58.06730 0.000000 39.38340 13.70430 8.019860 18.81790
302 68.28680 0.000000 42.00030 17.66370 10.53610 22.09680
303 76.14310 29.90920 71.85480 32.99250 22.38150 65.00690
304 75.88300 42.39900 100.0000 50.61440 39.10170 138.1020
305 100.0000 62.22080 100.0000 73.71540 61.58090 144.8560
306 0.000000 36.51480 47.34240 10.40740 10.88330 26.66540
307 0.000000 41.60520 67.38990 17.13050 16.26050 54.47990
308 0.000000 59.89360 100.0000 40.22190 40.91600 137.9470
309 0.000000 73.25110 100.0000 46.81670 52.52740 141.6260
310 0.000000 43.30310 28.10090 9.014410 12.45060 13.08360
311 26.91180 71.83130 30.78820 22.52700 34.33060 22.10830
312 0.000000 53.54110 15.13680 12.24530 18.54110 11.18000
313 0.000000 57.36270 62.78450 21.41180 25.40140 50.23230
314 0.000000 79.01880 89.33460 43.03130 52.00550 110.3670
315 0.000000 85.78910 100.0000 54.55070 65.99260 145.3790
316 0.000000 8.190810 22.21610 3.095340 2.453420 7.053230
317 0.000000 0.000000 31.25000 3.714050 2.508060 11.09220
318 100.0000 30.77160 31.44990 39.32260 26.51890 19.61530
319 38.38340 55.49440 0.000000 15.56050 21.28140 11.30310
320 53.63730 74.39460 0.000000 28.58320 39.27350 17.37910
321 100.0000 90.06410 0.000000 63.86600 71.71870 26.70830
322 100.0000 100.0000 0.000000 70.29940 82.70990 28.88360
323 20.10570 0.000000 14.51720 3.131510 2.210220 5.163930
324 34.18670 0.000000 20.15910 5.203590 3.348910 6.933430
325 76.20570 0.000000 23.95240 20.60050 12.41160 12.20480
326 100.0000 0.000000 63.11970 43.58240 25.80580 52.32100
327 100.0000 0.000000 74.38090 47.56710 28.17290 72.36580
328 100.0000 0.000000 86.57520 53.16770 31.81200 100.2640
329 100.0000 0.000000 100.0000 60.86000 38.59320 136.5970
330 27.86730 0.000000 56.29060 9.872340 5.871990 35.23270
331 75.26670 0.000000 57.92070 25.57020 15.08580 41.57340
332 80.96430 17.35330 100.0000 48.53510 32.16710 135.4480
333 0.000000 0.000000 13.15790 2.457470 1.853660 4.687010
334 11.16840 11.16840 11.16840 2.803660 2.438160 4.557710
335 16.00280 14.82290 0.000000 3.134500 2.877480 4.380490
336 77.75120 46.70550 0.000000 27.70820 24.53230 13.02270
337 100.0000 70.27510 29.07490 52.79620 50.86160 26.83240
338 100.0000 100.0000 47.71350 74.39340 84.87970 49.81770
339 100.0000 100.0000 60.00310 77.30450 86.51520 64.58650
340 100.0000 100.0000 69.81430 80.39370 88.32350 80.25440
341 0.000000 27.94380 73.93370 16.32060 12.15330 64.16300
342 0.000000 36.39800 78.50090 19.95370 16.45960 74.28450
343 0.000000 44.40740 100.0000 34.16520 30.18470 134.1900
344 41.85410 100.0000 100.0000 67.35160 82.97190 149.5680
345 63.52210 44.28520 41.41760 22.81860 20.38680 25.07970
346 100.0000 70.61760 45.96450 55.55000 52.64920 39.85420
347 57.94470 100.0000 26.98200 47.78950 68.94610 29.57790
348 75.36650 100.0000 63.16540 62.35920 77.58550 66.77040
349 85.37750 100.0000 80.98140 74.88230 85.11730 101.2340
350 100.0000 100.0000 87.53040 88.35890 93.41020 120.0260
351 10.20410 10.20410 10.20410 2.704850 2.350420 4.336120
352 0.000000 10.20410 0.000000 2.595070 2.293030 4.129970
353 0.000000 0.000000 0.000000 2.309980 1.774760 3.922440
354 0.380518 0.380518 0.380518 2.309430 1.774360 3.924340
355 0.000000 0.000000 4.807690 2.308930 1.774320 3.920930
356 12.15280 12.15280 12.15280 2.933090 2.578320 4.803530
357 28.87760 16.01610 45.21380 8.103960 5.712530 22.69600
358 41.09110 22.78370 80.22280 22.08110 14.70950 78.66330
359 100.0000 38.12380 100.0000 65.08740 46.18430 139.4780
360 29.87790 0.000000 29.29910 5.312140 3.383020 10.73050
361 38.83480 0.000000 27.72450 6.688400 4.154060 10.05520
362 43.10270 0.000000 46.23010 10.44720 6.190920 24.35970
363 59.55970 0.000000 77.21110 25.01410 14.52990 72.94500
364 75.12240 0.000000 87.10380 36.70120 21.97860 97.71960
365 77.02630 0.000000 100.0000 45.38670 29.34400 134.4510
366 0.000000 41.28770 41.37610 10.38220 12.31920 21.15350
367 0.000000 60.11700 52.40750 19.77040 25.77810 36.98200
368 73.58120 78.98290 52.12170 45.11360 52.40250 46.51100
369 100.0000 82.21790 70.16170 69.22410 68.69600 77.52070
370 38.77310 16.44810 0.000000 6.408300 4.886670 5.347170
371 61.84240 27.58740 0.000000 14.18060 11.08320 8.047260
372 100.0000 39.86780 0.000000 39.97920 29.51900 13.65670
373 100.0000 48.99200 0.000000 42.62660 34.26160 15.35250
374 100.0000 57.03910 0.000000 45.68730 39.74820 17.22820
375 100.0000 73.85010 0.000000 53.46970 53.51800 21.70770
376 71.94010 51.12530 0.000000 25.62900 25.10110 13.24840
377 78.38670 100.0000 0.000000 56.57640 74.49470 27.12170
378 88.73600 100.0000 0.000000 62.86940 78.25960 28.14960
379 31.50700 36.26470 0.000000 8.076490 9.563340 7.044510
380 33.87400 40.34420 100.0000 35.33990 29.34950 134.0610
381 37.68030 85.36480 100.0000 57.26180 67.02090 145.9770
382 0.000000 15.99220 15.29430 3.160040 3.012540 5.560140
383 11.65800 11.65800 11.65800 2.831580 2.484950 4.582680
384 0.000000 0.000000 14.70590 2.513370 1.880640 4.979260
385 0.000000 0.000000 17.95580 2.630740 1.940630 5.574760
386 0.000000 25.71580 51.50400 9.091410 7.551300 29.68910
387 43.11550 53.25280 64.74020 24.42680 25.34890 53.97140
388 72.82340 56.81440 69.86340 38.38630 35.08310 66.01500
389 37.83590 19.00070 36.03410 8.387370 6.203900 15.71950
390 47.25170 36.17730 51.57370 16.55880 14.24660 33.30730
391 55.63120 65.38360 58.17140 31.30680 35.40440 47.91180
392 100.0000 78.90910 74.60870 68.93210 66.37050 84.59520
393 25.96470 21.72220 40.54610 7.348760 5.975410 18.43670
